X: 1
T: Paddy on the Turnpike
S: Cari Fuchs' collection
B: Cole p.23
L: 1/8
N: See also "Bunch of Keys", the same tune in G Mixolydian.
Z: 1998 by John Chambers <jc:trillian.mit.edu>
M: C|
K: GDor
|: "Gm"DGG^F  G2GA | BGdG    _eGdG |  "F"DFFE  F2FG |     AFcF    dFcF  |
|  "Gm"DGG^F ~G2GA | BAGA     Bcde |  "F"fefd  cAFA | "D7"BGA^F "Gm"G4 :|
|: "Gm"dgg^f  g2ga | baga "C7"bage |  "F"dffg ~f2fg |     agfg    agfe  |
|  "Gm"dgg^f  g2ga | bagf "C7"dcde |  "F"fefd  cAFA | "D7"BGA^F "Gm"G4 :|
